X:0277
T:Quick Step 33d. Regt.
M:2/4
L:1/16
Q:1/4=86
I: :: ::
Z:Jack Campin * www.campin.me.uk * 2009
K:D
(ag)| f2d2 d2ed|c2A2  A2cA|B2G2 GBAG| F2D2 D2
 ag | f2d2 d2ed|c2A2 TA4  |BcdB edcB| A2d2 d2 :|
 z2 | f2a2 a2gf|e2g2  g2fe|d2f2 e2d2|Tc2Bc A2Bc|
     Td2cd B2cd|e2de Tc3d |edcB AGFE| D2d2 d2 :|

